X: 10345
T: Don't Be Teasing
R: jig
M: 6/8
K: Dmajor
|:B|AFD DFD|AFA dcB|AFD DFD|EFG Bcd|
AFD DFD|AFA d2A|BdB cec|d3 d2:|
|:d|afd dcd|Bcd AFD|afd dcd|Bcd e2f|
afd dcd|Bed cBA|Bgf ecA|d3 d2:|

